X:1721
T:Dusky Meadow
O:england
M:4/4
L:1/16
Q:220
C:Traditional Cape Breton
S:Natalie MacMaster "A Fiddle Lesson"
R:Strathspey
N:There are many hammerons, pulloffs etc.  If you would like to know
N:where they are, bye the video.  Its' real good
H:First recorded in the early 50s by Bill Lamey and Joe MacLean on a
H:Celtic lable 78
K:G
B,|A,3AEC3 DG,3D3B,|A,3AEC3 FD3E3C|DF3C3E DCB,A, G,3B,|
A,3AE3D CA,3A,3B,|A,3AEC3 DG,3D3B,|A,3AEC3 FD3E3C|DE3C3E DCB,A, G,3d|c3e
BcdB cA3A3|
|:g|a3ec3A BG3G3g|a3ecA3 eA3c3A|d3Bc3A dcBA G3g|fgaf ea3 cA3A3:|
